public/icons/favorited.svg

<svg width="24" height="24" viewBox="0 0 24 24" fill="none" xmlns="http://www.w3.org/2000/svg">
<path d="M10.55 19.7L12 21L13.45 19.7C15.1333 18.1833 16.525 16.875 17.625 15.775C18.725 14.675 19.6 13.6873 20.25 12.812C20.9 11.9373 21.3543 11.1333 21.613 10.4C21.871 9.66667 22 8.91667 22 8.15C22 6.58333 21.475 5.275 20.425 4.225C19.375 3.175 18.0667 2.65 16.5 2.65C15.6333 2.65 14.8083 2.83333 14.025 3.2C13.2417 3.56667 12.5667 4.08333 12 4.75C11.4333 4.08333 10.7583 3.56667 9.975 3.2C9.19167 2.83333 8.36667 2.65 7.5 2.65C5.93333 2.65 4.625 3.175 3.575 4.225C2.525 5.275 2 6.58333 2 8.15C2 8.91667 2.12933 9.66667 2.388 10.4C2.646 11.1333 3.1 11.9373 3.75 12.812C4.4 13.6873 5.275 14.675 6.375 15.775C7.475 16.875 8.86667 18.1833 10.55 19.7Z" fill="#FF4F68"/>
</svg>

<svg xmlns="http://www.w3.org/2000/svg" width="24" height="24" fill="none"><path fill="#FF4F68" d="M10.55 19.7 12 21l1.45-1.3c1.683-1.517 3.075-2.825 4.175-3.925 1.1-1.1 1.975-2.088 2.625-2.963.65-.875 1.104-1.679 1.363-2.412A6.733 6.733 0 0 0 22 8.15c0-1.567-.525-2.875-1.575-3.925-1.05-1.05-2.358-1.575-3.925-1.575-.867 0-1.692.183-2.475.55A5.93 5.93 0 0 0 12 4.75 5.93 5.93 0 0 0 9.975 3.2 5.769 5.769 0 0 0 7.5 2.65c-1.567 0-2.875.525-3.925 1.575C2.525 5.275 2 6.583 2 8.15c0 .767.13 1.517.388 2.25.258.733.712 1.537 1.362 2.412.65.875 1.525 1.863 2.625 2.963s2.492 2.408 4.175 3.925Z"/></svg>
